X:183
T:Alabama
M:C|
L:1/8
Q:1/4=120
K:Bb
B2|\
d2BB c2AA|B2GG F4|B3B F2F2|G2AA B3d |
f2d2 e2c2|ddB2 F4|B3B F2F2|G2AA B2dd|
f2d2 e2cc|d2B2 F4|B3B F2F2|G2AA B2 ||
